X: 1313
T: Kırcali`yle Arda Adası
C: Arif Şentürk
O: Turkey
F: http://compmusic.upf.edu/node/140
N: rast--turku--devrihindi_ii--deryalar--rumeli
N: makam= rast
N: form= turku
N: usul= devrihindi_ii = 7/8
M: 7/8
L: 1/16
K: C _1/4B ^f  
Q: 1/4=300
%%MIDI tuningsystem comma53
B6{B}d8 | d2 e2d2 d2c2 B4  | {B}d6c2 B2A4 | \
w:  Kır *  ca  |  liy *  *  le   |  *  Ar da'  | 
B6 B2A2 G4  | B2B4c2 d2d4 | 
w:  ra sı    |  Sa at  se *  kiz   | 
d2 e2d2 d4 d{c}Bc2  | B14 | B6 B2A2 G4  | \
w:  sı *  *  ra  |  sı    |  Yu su *  fum   | 
B2B4c2 d2d4 | d2 e2d2 d4 d{c}Bc2  | 
w:  sa at  se *  kiz   |  sı *  *  ra  | 
B14 | .B6 .B4 .B4  | B6dc d2d2 d2 | d2 e2d2 d2c2 B4  | \
w:  sı    |  SAZ  |  Ar da *  *  *  lı  |  lar  *  *  ağ  | 
{c}d6c2 B2A4 | B6 B2A2 G4  | 
w:  *  lı yor   *  Yu  |  su fum   | 
{B}c6c2 B2A4 | B4A2 AGAB A4  | G14 | .G6 .G4 .G4  | \
w:  *  yok tur   |  ça *  re  |  si    |  SAZ  | 
B6dc d2d2 d2 | 
w:  Ar da *  *  *  lı  | 
d2 e2d2 d2c2 B4  | {c}d6c2 B2A4 | B6 B2A2 G4  | \
w:  lar  *  *  ağ  |  *  lı yor   *  Yu  |  su fum   | 
{B}c6c2 B2A4 | B4A2 AGAB A4  | 
w:  *  yok tur   |  ça *  re  | 
G14 | .G6 .G4 .G4  | B6{c}d4d4 | d2 e2d2 d2c2 B4  | \
w:  si    |  SAZ  |  A *  man  bre   |  der *  *  ya *  lar    | 
cd3 c2{d}c2 B2A4 | B4B2 B2A2 G4  | 
w:  Kan *  *  *  lı *  ca   |  der *  ya *  lar    | 
B6d8 | d2 e2d2 d4 d{c}Bc2  | B14 | B4B2 B2A2 G4  | \
w:  Biz  ni  |  şan *  *  lı  |  yız    |  Der *  ya *  lar   | 
B6d8 | d2 e2d2 d4 d{c}Bc2  | 
w:  biz  ni  |  şan *  *  lı  | 
B14 | .B6 .B4 .B4  | B2c4dc d6 | d2 e2d2 d2c2 B4  | \
w:  yız    |  SAZ  |  İ *  ki  |  miz  *  *  de   | 
cd3 c2{d}c2 B2A4 | 
w:  bir  *  *  *  boy  | 
B4B2 B2A2 G4  | B2c4c2 B2B2 A2 | B4A2 A3B ABG2  | G14 | \
w:  da *  yız    |  Biz  *  de *  li  |  kan *  lı  |  yız    | 
.G6 .G4 .G4  | 
w:  SAZ  | 
B2c4dc d6 | d2 e2d2 d2c2 B4  | cd3 c2{d}c2 B2A4 | \
w:  İ *  ki  |  miz  *  *  de   |  bir  *  *  *  boy  | 
B4B2 B2A2 G4  | 
w:  da *  yız    | 
B2c4c2 B2B2 A2 | B4A2 A3B ABG2  | G14 | \
w:  Biz  *  de *  li  |  kan *  lı  |  yız    | 
.G6 .G4 .G4  | B6{B}d8 | d2 e2d2 d2c2 B4  | 
w:  SAZ  |  Kır *  ca  |  liy *  *  le   | 
{B}d6c2 B2A4 | B6 B2A2 G4  | B2B4c2 d2d4 | \
w:  *  Ar da'  |  ra sı    |  Sa at  se *  kiz   | 
d2 e2d2 d4 d{c}Bc2  | B14 | 
w:  sı *  *  ra  |  sı    | 
B6 B2A2 G4  | B2B4c2 d2d4 | d2 e2d2 d4 d{c}Bc2  | B14 | \
w:  Yu su *  fum   |  sa at  se *  kiz   |  sı *  *  ra  |  sı    | 
.B6 .B4 .B4  | B6dc d2d2 d2 | 
w:  SAZ  |  Ar da *  *  *  lı  | 
d2 e2d2 d2c2 B4  | {c}d6c2 B2A4 | B6 B2A2 G4  | \
w:  lar  *  *  ağ  |  *  lı yor   *  Yu  |  su fum   | 
{B}c6c2 B2A4 | B4A2 AGAB A4  | 
w:  *  yok tur   |  ça *  re  | 
G14 | .G6 .G4 .G4  | B6dc d2d2 d2 | d2 e2d2 d2c2 B4  | \
w:  si    |  SAZ  |  Ar da *  *  *  lı  |  lar  *  *  ağ  | 
{c}d6c2 B2A4 | B6 B2A2 G4  | 
w:  *  lı yor   *  Yu  |  su fum   | 
{B}c6c2 B2A4 | B4A2 AGAB A4  | G14 | .G6 .G4 .G4  | \
w:  *  yok tur   |  ça *  re  |  si    |  SAZ  | 
B6{c}d4d4 | d2 e2d2 d2c2 B4  | 
w:  A *  man  bre   |  der *  *  ya *  lar    | 
cd3 c2{d}c2 B2A4 | B4B2 B2A2 G4  | B6d8 | \
w:  Kan *  *  *  lı *  ca   |  der *  ya *  lar    |  Biz  ni  | 
d2 e2d2 d4 d{c}Bc2  | B14 | 
w:  şan *  *  lı  |  yız    | 
B4B2 B2A2 G4  | B6d8 | d2 e2d2 d4 d{c}Bc2  | B14 | \
w:  Der *  ya *  lar   |  biz  ni  |  şan *  *  lı  |  yız    | 
.B6 .B4 .B4  | B2c4dc d6 | 
w:  SAZ  |  İ *  ki  | 
d2 e2d2 d2c2 B4  | cd3 c2{d}c2 B2A4 | \
w:  miz  *  *  de   |  bir  *  *  *  boy  | 
B4B2 B2A2 G4  | B2c4c2 B2B2 A2 | 
w:  da *  yız    |  Biz  *  de *  li  | 
B4A2 A3B ABG2  | G14 | .G6 .G4 .G4  | B2c4dc d6 | \
w:  kan *  lı  |  yız    |  SAZ  |  İ *  ki  | 
d2 e2d2 d2c2 B4  | 
w:  miz  *  *  de   | 
cd3 c2{d}c2 B2A4 | B4B2 B2A2 G4  | B2c4c2 B2B2 A2 | \
w:  bir  *  *  *  boy  |  da *  yız    |  Biz  *  de *  li  | 
B4A2 A3B ABG2  | 
w:  kan *  lı  | 
G14 | .G6 .G4 .G4  | |


